packages/ffe-icons/icons/filled/sm/remote_gen.svg

<svg xmlns="http://www.w3.org/2000/svg" height="20" viewBox="0 -960 960 960" width="20"><path d="M322.001-65.694q-26.527 0-45.417-18.89T257.694-130v-699.998q0-26.527 18.89-45.417t45.417-18.89h315.998q26.527 0 45.417 18.89t18.89 45.417v699.998q0 26.527-18.89 45.417t-45.417 18.89H322.001ZM479.837-569q44.932 0 76.547-31.246 31.615-31.247 31.615-75.884 0-44.638-31.452-76.253-31.452-31.615-76.384-31.615t-76.547 31.452q-31.615 31.452-31.615 76.384t31.452 76.047q31.452 31.115 76.384 31.115Zm.163-51.998q-22.846 0-39.424-16.577-16.577-16.578-16.577-39.512t16.577-38.923q16.578-15.99 39.424-15.99t39.424 15.99q16.577 15.989 16.577 38.923t-16.577 39.512Q502.846-620.999 480-620.999Zm-68.297 208.306q13.605 0 22.951-9.203T444-444.703q0-13.605-9.203-22.951T411.99-477q-13.605 0-22.951 9.203t-9.346 22.807q0 13.605 9.203 22.951t22.807 9.346Zm136.308 0q13.604 0 22.95-9.203t9.346-22.807q0-13.605-9.203-22.951T548.297-477q-13.605 0-22.951 9.203T516-444.99q0 13.605 9.203 22.951t22.808 9.346Zm-136.308 118q13.605 0 22.951-9.203T444-326.703q0-13.605-9.203-22.951T411.99-359q-13.605 0-22.951 9.203t-9.346 22.807q0 13.605 9.203 22.951t22.807 9.346Zm136.308 0q13.604 0 22.95-9.203t9.346-22.807q0-13.605-9.203-22.951T548.297-359q-13.605 0-22.951 9.203T516-326.99q0 13.605 9.203 22.951t22.808 9.346Zm-136.308 119q13.605 0 22.951-9.203T444-207.703q0-13.605-9.203-22.951T411.99-240q-13.605 0-22.951 9.203t-9.346 22.808q0 13.604 9.203 22.95t22.807 9.346Zm136.308 0q13.604 0 22.95-9.203t9.346-22.807q0-13.605-9.203-22.951T548.297-240q-13.605 0-22.951 9.203T516-207.989q0 13.604 9.203 22.95t22.808 9.346Z"/></svg>

<svg xmlns="http://www.w3.org/2000/svg" height="20" viewBox="0 -960 960 960" width="20"><path d="M322-65.69q-26.53 0-45.42-18.89T257.69-130v-700q0-26.53 18.89-45.42T322-894.31h316q26.53 0 45.42 18.89T702.31-830v700q0 26.53-18.89 45.42T638-65.69H322ZM479.84-569q44.93 0 76.54-31.25Q588-631.49 588-676.13t-31.45-76.25Q525.09-784 480.16-784t-76.54 31.45Q372-721.09 372-676.16t31.45 76.04Q434.91-569 479.84-569Zm.16-52q-22.85 0-39.42-16.58Q424-654.15 424-677.09q0-22.93 16.58-38.92Q457.15-732 480-732t39.42 15.99Q536-700.02 536-677.09q0 22.94-16.58 39.51Q502.85-621 480-621Zm-68.3 208.31q13.61 0 22.95-9.21 9.35-9.2 9.35-22.8 0-13.61-9.2-22.95-9.21-9.35-22.81-9.35-13.6 0-22.95 9.2-9.35 9.21-9.35 22.81 0 13.6 9.21 22.95 9.2 9.35 22.8 9.35Zm136.31 0q13.6 0 22.95-9.21 9.35-9.2 9.35-22.8 0-13.61-9.21-22.95-9.2-9.35-22.8-9.35-13.61 0-22.95 9.2-9.35 9.21-9.35 22.81 0 13.6 9.2 22.95 9.21 9.35 22.81 9.35Zm-136.31 118q13.61 0 22.95-9.21 9.35-9.2 9.35-22.8 0-13.61-9.2-22.95-9.21-9.35-22.81-9.35-13.6 0-22.95 9.2-9.35 9.21-9.35 22.81 0 13.6 9.21 22.95 9.2 9.35 22.8 9.35Zm136.31 0q13.6 0 22.95-9.21 9.35-9.2 9.35-22.8 0-13.61-9.21-22.95-9.2-9.35-22.8-9.35-13.61 0-22.95 9.2-9.35 9.21-9.35 22.81 0 13.6 9.2 22.95 9.21 9.35 22.81 9.35Zm-136.31 119q13.61 0 22.95-9.21 9.35-9.2 9.35-22.8 0-13.61-9.2-22.95-9.21-9.35-22.81-9.35-13.6 0-22.95 9.2-9.35 9.21-9.35 22.81 0 13.6 9.21 22.95 9.2 9.35 22.8 9.35Zm136.31 0q13.6 0 22.95-9.21 9.35-9.2 9.35-22.8 0-13.61-9.21-22.95-9.2-9.35-22.8-9.35-13.61 0-22.95 9.2-9.35 9.21-9.35 22.81 0 13.6 9.2 22.95 9.21 9.35 22.81 9.35Z"/></svg>
